icons/op-back-up-24.svg

<svg width="24" height="24" viewBox="0 0 24 24" fill="none" xmlns="http://www.w3.org/2000/svg">
<path d="M11 10.8571V13.1429H18V15.4286H20V10.8571H11ZM10 16V8L4 12L10 16Z" fill="black"/>
</svg>

<svg xmlns="http://www.w3.org/2000/svg" width="24" height="24" viewBox="0 0 24 24"><path d="M11 10.857v2.286h7v2.286h2v-4.572h-9ZM10 16V8l-6 4 6 4Z"/></svg>
